gama.ui.shared/icons_svg/dark/editor/command.lastedit.svg

<svg height="24.75" viewBox="-884.284 -3263.76 24.75 24.75" width="24.75" xmlns="http://www.w3.org/2000/svg"><g fill="none"><circle cx="-871.909" cy="-3251.385" fill="#666" r="8"/><circle cx="-871.909" cy="-3251.385" r="8"/><circle cx="-871.909" cy="-3251.385" fill="#666" r="8"/><circle cx="-871.909" cy="-3251.385" r="8"/><path d="m-875.1026-3251.0006 2.6496 2.6496c.1644.1644.1644.431 0 .5955s-.431.1645-.5954 0l-3.3685-3.3685c-.1644-.1644-.1644-.431 0-.5954l3.3685-3.3686c.1644-.1643.431-.1643.5954 0 .1644.1646.1644.431 0 .5956l-2.6496 2.6497h7.4045c.2326 0 .4211.1885.4211.421 0 .2327-.1885.4211-.4211.4211zm3.194 7.5789c-4.4183 0-8-3.5817-8-8s3.5817-8 8-8 8 3.5817 8 8-3.5817 8-8 8zm0-.8421c3.9532 0 7.1579-3.2047 7.1579-7.1579 0-3.9533-3.2047-7.1579-7.1579-7.1579s-7.1579 3.2046-7.1579 7.1579c0 3.9532 3.2047 7.1579 7.1579 7.1579z" fill="#c0e0ff"/></g></svg>

<?xml version="1.0" encoding="UTF-8" standalone="no"?>
<!DOCTYPE svg PUBLIC "-//W3C//DTD SVG 1.1//EN" "http://www.w3.org/Graphics/SVG/1.1/DTD/svg11.dtd">
<svg xmlns="http://www.w3.org/2000/svg" xmlns:dc="http://purl.org/dc/elements/1.1/" version="1.1" xmlns:xl="http://www.w3.org/1999/xlink" viewBox="-884.2836 -3263.7598 24.75 24.75" width="24.75" height="24.75">
  <defs/>
  <g id="SOURCES" stroke-dasharray="none" stroke-opacity="1" stroke="none" fill="none" fill-opacity="1">
    <title>SOURCES</title>
    <g id="SOURCES_Dark">
      <title>Dark</title>
      <g id="Group_12234">
        <g id="Group_12236">
          <g id="Graphic_12239">
            <circle cx="-871.9086" cy="-3251.3848" r="8.00000702080164" fill="#666"/>
            <circle cx="-871.9086" cy="-3251.3848" r="8.00000702080164" stroke="black" stroke-linecap="round" stroke-linejoin="round" stroke-width="0"/>
          </g>
          <g id="Graphic_12238"/>
          <g id="Graphic_12237">
            <circle cx="-871.9086" cy="-3251.3848" r="8.00000702080164" fill="#666"/>
            <circle cx="-871.9086" cy="-3251.3848" r="8.00000702080164" stroke="black" stroke-linecap="round" stroke-linejoin="round" stroke-width="0"/>
          </g>
        </g>
        <g id="Graphic_12235">
          <path d="M -875.1026 -3251.0006 L -872.453 -3248.351 C -872.2886 -3248.1866 -872.2886 -3247.92 -872.453 -3247.7555 C -872.6174 -3247.591 -872.884 -3247.591 -873.0484 -3247.7555 L -876.4169 -3251.124 C -876.5813 -3251.2884 -876.5813 -3251.555 -876.4169 -3251.7194 L -873.0484 -3255.088 C -872.884 -3255.2523 -872.6174 -3255.2523 -872.453 -3255.088 C -872.2886 -3254.9234 -872.2886 -3254.657 -872.453 -3254.4924 L -875.1026 -3251.8427 L -867.6981 -3251.8427 C -867.4655 -3251.8427 -867.277 -3251.6542 -867.277 -3251.4217 C -867.277 -3251.189 -867.4655 -3251.0006 -867.6981 -3251.0006 L -875.1026 -3251.0006 Z M -871.9086 -3243.4217 C -876.3269 -3243.4217 -879.9086 -3247.0034 -879.9086 -3251.4217 C -879.9086 -3255.84 -876.3269 -3259.4217 -871.9086 -3259.4217 C -867.4903 -3259.4217 -863.9086 -3255.84 -863.9086 -3251.4217 C -863.9086 -3247.0034 -867.4903 -3243.4217 -871.9086 -3243.4217 Z M -871.9086 -3244.2638 C -867.9554 -3244.2638 -864.7507 -3247.4685 -864.7507 -3251.4217 C -864.7507 -3255.375 -867.9554 -3258.5796 -871.9086 -3258.5796 C -875.8618 -3258.5796 -879.0665 -3255.375 -879.0665 -3251.4217 C -879.0665 -3247.4685 -875.8618 -3244.2638 -871.9086 -3244.2638 Z" fill="#c0e0ff"/>
        </g>
      </g>
    </g>
  </g>
</svg>
